src/main/resources/icons/RubyIcons/icons/rails/projectView/action_method.svg

<svg xmlns="http://www.w3.org/2000/svg" width="16" height="16" viewBox="0 0 16 16">
  <g fill="none" fill-rule="evenodd">
    <path fill="#9AA7B0" d="M12.5,9 C10.568,9 9,10.568 9,12.5 C9,14.432 10.568,16 12.5,16 C14.432,16 16,14.432 16,12.5 C16,10.568 14.432,9 12.5,9 Z M12.15,15.2755 C10.7675,15.104 9.7,13.928 9.7,12.5 C9.7,12.283 9.728,12.0765 9.7735,11.8735 L11.45,13.55 L11.45,13.9 C11.45,14.285 11.765,14.6 12.15,14.6 L12.15,15.2755 Z M14.565,14.3865 C14.474,14.103 14.215,13.9 13.9,13.9 L13.55,13.9 L13.55,12.85 C13.55,12.6575 13.3925,12.5 13.2,12.5 L11.1,12.5 L11.1,11.8 L11.8,11.8 C11.9925,11.8 12.15,11.6425 12.15,11.45 L12.15,10.75 L12.85,10.75 C13.235,10.75 13.55,10.435 13.55,10.05 L13.55,9.9065 C14.5755,10.323 15.3,11.3275 15.3,12.5 C15.3,13.228 15.02,13.8895 14.565,14.3865 Z"/>
    <path fill="#F98B9E" fill-opacity=".6" d="M14.9621146,8.73269042 C14.2546658,8.26939757 13.4087935,8 12.5,8 C10.0147186,8 8,10.0147186 8,12.5 C8,13.4087935 8.26939757,14.2546658 8.73269042,14.9621146 C8.49187876,14.9871616 8.2474387,15 8,15 C4.134,15 1,11.866 1,8 C1,4.134 4.134,1 8,1 C11.866,1 15,4.134 15,8 C15,8.2474387 14.9871616,8.49187876 14.9621146,8.73269042 Z"/>
    <path fill="#231F20" fill-opacity=".7" d="M11.9922472,8.0283282 C11.6499815,8.06676297 11.3193299,8.14358942 11.0046997,8.2544004 C11.0046997,8.17200557 11.0046997,8.08720544 11.0046997,8 C11.0041373,7.73961181 11.0041373,7 9.98162842,7 C8.95911952,7 9,7.686 9,8 L9,9.67133283 C8.68147401,10.0649641 8.42800612,10.5134052 8.25595254,11.0003 L8,11.0003 L8,8 C7.999,7.537 7.95,7 7,7 C6.05,7 6.05,7.7657 6,8 C5.96666667,8.1562 5.96666667,9.1563 6,11.0003 L5,11.0003 L5,6.0003 L6,6.0003 L6,6.299231 C6.26527507,6.09994367 6.63194173,6.0003 7.1,6.0003 C7.94411621,6.0003 8.28363037,6.19411621 8.5986,6.6 C8.6576,6.502 9.11224365,6.0003 9.98162842,6.0003 C11.6351318,6.0003 11.9912,7.251 11.9922,8 L11.9922472,8.0283282 Z"/>
  </g>
</svg>

<svg xmlns="http://www.w3.org/2000/svg" width="16" height="16" viewBox="0 0 16 16"><rect id="frame" width="16" height="16" fill="none"/><g fill="none" fill-rule="evenodd"><path fill="#9AA7B0" d="M12.5 9A3.501 3.501 0 0 0 9 12.5c0 1.932 1.568 3.5 3.5 3.5s3.5-1.568 3.5-3.5S14.432 9 12.5 9zm-.35 6.275a2.796 2.796 0 0 1-2.377-3.402l1.677 1.677v.35c0 .385.315.7.7.7v.675zm2.415-.889a.694.694 0 0 0-.665-.486h-.35v-1.05a.351.351 0 0 0-.35-.35h-2.1v-.7h.7c.192 0 .35-.158.35-.35v-.7h.7c.385 0 .7-.315.7-.7v-.144A2.802 2.802 0 0 1 15.3 12.5c0 .728-.28 1.39-.735 1.886z"/><path fill="#F98B9E" fill-opacity=".6" d="M14.962 8.733a4.5 4.5 0 0 0-6.23 6.23 7 7 0 1 1 6.23-6.23z"/><path fill="#231F20" fill-opacity=".7" d="M11.992 8.028a4.474 4.474 0 0 0-.987.226V8c0-.26 0-1-1.023-1S9 7.686 9 8v1.671a4.493 4.493 0 0 0-.744 1.33H8V8c-.001-.463-.05-1-1-1s-.95.766-1 1c-.033.156-.033 1.156 0 3H5V6h1v.3c.265-.2.632-.3 1.1-.3.844 0 1.184.194 1.499.6.059-.098.513-.6 1.383-.6 1.653 0 2.01 1.251 2.01 2v.028z"/></g></svg>
